src/actions/symbolic/selection-bottom-symbolic.svg

<svg width="16" height="16" version="1.1" xmlns="http://www.w3.org/2000/svg">
 <path class="ColorScheme-Text" d="m7 3v1h7v-1zm2 2v1h5v-1zm-1 2v1h6v-1zm1 2v1h5v-1zm-2 2v1h7v-1z" color="#2e3440" fill="currentColor" opacity=".35"/>
 <path class="ColorScheme-Text" d="m4 2v8.0293l-1.3438-1.4375-0.65625 0.6875 2.3125 2.5 0.18945 0.21875 0.1875-0.21875 2.3125-2.5-0.65625-0.6875-1.3438 1.4375v-8.0293zm-2 11v1h12v-1z" color="#2e3440" fill="currentColor"/>
</svg>

<svg xmlns="http://www.w3.org/2000/svg" width="16" height="16"><path fill="currentColor" d="M7 3v1h7V3zm2 2v1h5V5zM8 7v1h6V7zm1 2v1h5V9zm-2 2v1h7v-1z" class="ColorScheme-Text" color="#2e3440" opacity=".35"/><path fill="currentColor" d="M4 2v8.03L2.656 8.591 2 9.279l2.312 2.5.19.219.187-.219 2.313-2.5-.656-.687-1.344 1.437V2zM2 13v1h12v-1z" class="ColorScheme-Text" color="#2e3440"/></svg>
